!!!OTL: Trinklied.
!!!OTL-incipit: HANS NABER IK HEB ET JU TOGEBRACHT
!!!ARE: Europa, Mitteleuropa, Deutschland, Hiddensee bei Ruegen
!!!SCT: Z1318
!!!YEM: Copyright 1995, estate of Helmut Schaffrath.
**kern	**text
*ICvox	*
*M3/8	*
*k[]	*
*a:	*
!LO:TX:a:t=Von Hiddenſee bei Rügen.	!
{8e	Hans
=1	=1
8.a	Na-
16g#	-ber,
8a	ik
=2	=2
8.a	heb
16b/	et
8cc	ju
=3	=3
4b/	to-
8g#	-ge-
=4	=4
8e	-bracht,
8r}	.
{8e	ſett
=5	=5
8.bL	ju
16aJ	.
8b/	man
=6	=6
8.bL	Duhm
16ccJ	.
8dd	un
=7	=7
4ee	Fin-
8cc	-ger
=8	=8
8a	dran!
8r}	.
{8ee	he,
=9	=9
8ff	kuk-
8ee	-ke
8dd	'mal
=10	=10
8ee	in!
8r	.
8ee	he,
=11	=11
8ff	kuk-
8ee	-ke
8dd	'mal
=12	=12
8ee	in!
8r}	.
{8ee	noch
=13	=13
8.cc	Oe-
16b	-le,
8a	noch
=14	=14
8.ff	Oe-
16ee	-le,
8dd	noch
=15	=15
8.b/	Oe-
16a	-le
8g#	dar-
=16	=16
8a	-in!
8r}	.
==	==
!!!AGN: Zech -, Schalks - Lied
!!!ONB: ESAC (Essen Associative Code) Database: ZUCCAL
!!!AMT: simple triple
!!!AIN: vox
!!!EED: Helmut Schaffrath
!!!EEV: 1.0
!!!GTL: VIII. Zech- und Schalks-Lieder.
!!!URL-scan: https://www.digitale-sammlungen.de/de/view/bsb11160573?page=584
!!!ENC: Anna Maria Matuszewska
!!!EEV: 2025/02/07
*-	*-
